img/svg/service-flight.svg

<?xml version="1.0" encoding="utf-8"?><!DOCTYPE svg PUBLIC "-//W3C//DTD SVG 1.1//EN" "http://www.w3.org/Graphics/SVG/1.1/DTD/svg11.dtd"><svg version="1.1" baseProfile="full" xmlns="http://www.w3.org/2000/svg" xmlns:xlink="http://www.w3.org/1999/xlink" xmlns:ev="http://www.w3.org/2001/xml-events"   height="13px"   width="13px" ><path fill="rgb( 255, 102, 0 )" d="M12.146,2.625 C12.679,1.91000000000003 12.998,1.16899999999998 13,0.63900000000001 C12.999,0.46699999999998 12.965,0.33300000000003 12.899,0.233 C12.893,0.221 12.874,0.18900000000002 12.84,0.15800000000002 C12.807,0.125 12.778,0.10700000000003 12.771,0.10399999999998 C12.6660000000001,0.03399999999999 12.532,0 12.36,0 C11.832,0.00099999999998 11.09,0.31999999999999 10.376,0.85500000000002 C9.798,1.28699999999998 9.221,1.89499999999998 8.42100000000005,2.738 C8.28599999999994,2.88099999999997 8.14300000000003,3.03100000000001 7.99199999999996,3.18900000000002 C7.99199999999996,3.18900000000002 6.44399999999996,2.72500000000002 6.44399999999996,2.72500000000002 C6.44399999999996,2.72500000000002 6.44799999999998,2.72000000000003 6.44799999999998,2.72000000000003 C6.51300000000003,2.65499999999997 6.54899999999998,2.56599999999997 6.548,2.47800000000001 C6.54899999999998,2.38499999999999 6.51199999999994,2.29599999999999 6.447,2.23099999999999 C6.447,2.23099999999999 6.16800000000001,1.95100000000002 6.16800000000001,1.95100000000002 C6.10299999999995,1.88600000000002 6.01400000000001,1.84899999999999 5.92200000000003,1.84899999999999 C5.82799999999997,1.84899999999999 5.74099999999999,1.88499999999999 5.67600000000004,1.95100000000002 C5.67600000000004,1.95100000000002 5.25800000000004,2.36900000000003 5.25800000000004,2.36900000000003 C5.25800000000004,2.36900000000003 5.03700000000003,2.303 5.03700000000003,2.303 C5.08399999999995,2.24200000000002 5.11099999999999,2.16699999999997 5.11000000000001,2.09199999999998 C5.11099999999999,1.99799999999999 5.07399999999996,1.91000000000003 5.00900000000001,1.84500000000003 C5.00900000000001,1.84500000000003 4.72799999999995,1.56400000000002 4.72799999999995,1.56400000000002 C4.66399999999999,1.5 4.57500000000005,1.46300000000002 4.48199999999997,1.46300000000002 C4.38900000000001,1.46300000000002 4.30200000000002,1.49900000000002 4.23800000000006,1.565 C4.23800000000006,1.565 3.85400000000004,1.94900000000001 3.85400000000004,1.94900000000001 C3.85400000000004,1.94900000000001 2.279,1.47699999999998 2.279,1.47699999999998 C2.24400000000003,1.46600000000001 2.20699999999999,1.46100000000001 2.16700000000003,1.46100000000001 C2.05499999999995,1.46199999999999 1.95100000000002,1.50400000000002 1.87599999999998,1.57900000000001 C1.87599999999998,1.57900000000001 1.322,2.13299999999998 1.322,2.13299999999998 C1.25900000000001,2.19499999999999 1.22400000000005,2.28100000000001 1.22500000000002,2.36099999999999 C1.22299999999996,2.48000000000002 1.28899999999999,2.589 1.39400000000001,2.64600000000002 C1.39400000000001,2.64600000000002 4.70399999999995,4.49599999999998 4.70399999999995,4.49599999999998 C4.721,4.505 4.76700000000005,4.53899999999999 4.78499999999997,4.55700000000002 C4.78499999999997,4.55700000000002 5.72900000000004,5.5 5.72900000000004,5.5 C4.846,6.43099999999998 4.05899999999997,7.33199999999999 3.44600000000003,8.11599999999999 C3.38900000000001,8.18799999999999 3.33500000000004,8.25900000000001 3.28200000000004,8.32999999999998 C3.28200000000004,8.32999999999998 0.72000000000003,8.09699999999998 0.72000000000003,8.09699999999998 C0.70799999999997,8.09500000000003 0.69399999999996,8.09399999999999 0.67600000000004,8.09399999999999 C0.55899999999997,8.09699999999998 0.44399999999996,8.14299999999997 0.35900000000004,8.226 C0.35900000000004,8.226 0.101,8.48399999999998 0.101,8.48399999999998 C0.03700000000003,8.54599999999999 0.00099999999998,8.63 0.00199999999995,8.71199999999999 C0,8.83600000000001 0.07500000000005,8.95100000000002 0.18799999999999,9.00099999999998 C0.18799999999999,9.00099999999998 1.99000000000001,9.85700000000003 1.99000000000001,9.85700000000003 C2.00599999999997,9.86500000000001 2.04600000000005,9.89400000000001 2.05899999999997,9.90699999999998 C2.05899999999997,9.90699999999998 2.20899999999995,10.055 2.20899999999995,10.055 C2.16200000000003,10.187 2.13800000000003,10.301 2.13699999999994,10.402 C2.13599999999997,10.536 2.17999999999995,10.651 2.26199999999994,10.734 C2.26199999999994,10.734 2.26900000000001,10.739 2.26900000000001,10.739 C2.26900000000001,10.739 2.27099999999996,10.741 2.27099999999996,10.741 C2.35599999999999,10.823 2.46600000000001,10.865 2.60199999999998,10.865 C2.70000000000005,10.863 2.81299999999999,10.84 2.94500000000005,10.793 C2.94500000000005,10.793 3.09699999999998,10.945 3.09699999999998,10.945 C3.10900000000004,10.958 3.13699999999994,10.997 3.14499999999998,11.013 C3.14499999999998,11.013 3.99900000000002,12.811 3.99900000000002,12.811 C4.05100000000004,12.926 4.16300000000001,13 4.28599999999994,13 C4.28599999999994,13 4.28700000000003,13 4.28700000000003,13 C4.37199999999996,13 4.45299999999997,12.966 4.51499999999999,12.904 C4.51499999999999,12.904 4.779,12.639 4.779,12.639 C4.85799999999995,12.556 4.904,12.442 4.90599999999995,12.322 C4.90599999999995,12.307 4.90499999999997,12.296 4.90499999999997,12.29 C4.90499999999997,12.29 4.67100000000005,9.71899999999999 4.67100000000005,9.71899999999999 C4.74199999999996,9.666 4.81299999999999,9.61200000000002 4.88599999999997,9.55500000000001 C5.66999999999996,8.94099999999997 6.57100000000003,8.154 7.5,7.27199999999999 C7.5,7.27199999999999 8.44399999999996,8.21800000000002 8.44399999999996,8.21800000000002 C8.46000000000004,8.23200000000003 8.495,8.279 8.50599999999997,8.29899999999998 C8.50599999999997,8.29899999999998 10.352,11.604 10.352,11.604 C10.408,11.711 10.5170000000001,11.777 10.6369999999999,11.777 C10.723,11.777 10.804,11.743 10.867,11.679 C10.867,11.679 11.424,11.122 11.424,11.122 C11.497,11.047 11.538,10.944 11.539,10.832 C11.539,10.794 11.533,10.757 11.523,10.723 C11.523,10.723 11.052,9.14800000000002 11.052,9.14800000000002 C11.052,9.14800000000002 11.436,8.76299999999998 11.436,8.76299999999998 C11.5,8.69900000000001 11.537,8.61000000000001 11.537,8.51799999999997 C11.537,8.42599999999999 11.501,8.33999999999997 11.436,8.274 C11.436,8.274 11.155,7.99299999999999 11.155,7.99299999999999 C11.09,7.928 11.001,7.89100000000002 10.91,7.89100000000002 C10.832,7.89100000000002 10.756,7.91699999999997 10.697,7.964 C10.697,7.964 10.631,7.74299999999999 10.631,7.74299999999999 C10.631,7.74299999999999 11.05,7.32400000000001 11.05,7.32400000000001 C11.114,7.25999999999999 11.151,7.17099999999999 11.151,7.07900000000001 C11.151,6.98599999999999 11.115,6.899 11.05,6.834 C11.05,6.834 10.77,6.55399999999997 10.77,6.55399999999997 C10.705,6.48899999999998 10.615,6.452 10.523,6.452 C10.431,6.452 10.341,6.48899999999998 10.278,6.55399999999997 C10.278,6.55399999999997 10.275,6.55599999999998 10.275,6.55599999999998 C10.275,6.55599999999998 9.81100000000004,5.00799999999998 9.81100000000004,5.00799999999998 C9.971,4.85500000000002 10.123,4.70999999999998 10.269,4.57299999999998 C11.1079999999999,3.77600000000001 11.715,3.20100000000002 12.146,2.625 Z "/></svg>

<svg baseProfile="full" xmlns="http://www.w3.org/2000/svg" height="13" width="13"><path fill="rgb( 255, 102, 0 )" d="M12.146 2.625c.533-.715.852-1.456.854-1.986-.001-.172-.035-.306-.101-.406l-.059-.075-.069-.054c-.105-.07-.239-.104-.411-.104-.528.001-1.27.32-1.984.855-.578.432-1.155 1.04-1.955 1.883l-.429.451-1.548-.464.004-.005c.065-.065.101-.154.1-.242.001-.093-.036-.182-.101-.247l-.279-.28c-.065-.065-.154-.102-.246-.102-.094 0-.181.036-.246.102l-.418.418-.221-.066c.047-.061.074-.136.073-.211.001-.094-.036-.182-.101-.247l-.281-.281c-.064-.064-.153-.101-.246-.101s-.18.036-.244.102l-.384.384-1.575-.472-.112-.016c-.112.001-.216.043-.291.118l-.554.554c-.063.062-.098.148-.097.228-.002.119.064.228.169.285l3.31 1.85.081.061.944.943c-.883.931-1.67 1.832-2.283 2.616l-.164.214-2.562-.233-.044-.003c-.117.003-.232.049-.317.132l-.258.258c-.064.062-.1.146-.099.228-.002.124.073.239.186.289l1.802.856.069.05.15.148c-.047.132-.071.246-.072.347-.001.134.043.249.125.332l.007.005.002.002c.085.082.195.124.331.124.098-.002.211-.025.343-.072l.152.152.048.068.854 1.798c.052.115.164.189.287.189h.001c.085 0 .166-.034.228-.096l.264-.265c.079-.083.125-.197.127-.317l-.001-.032-.234-2.571.215-.164c.784-.614 1.685-1.401 2.614-2.283l.944.946.062.081 1.846 3.305c.056.107.165.173.285.173.086 0 .167-.034.23-.098l.557-.557c.073-.075.114-.178.115-.29l-.016-.109-.471-1.575.384-.385c.064-.064.101-.153.101-.245s-.036-.178-.101-.244l-.281-.281c-.065-.065-.154-.102-.245-.102-.078 0-.154.026-.213.073l-.066-.221.419-.419c.064-.064.101-.153.101-.245 0-.093-.036-.18-.101-.245l-.28-.28c-.065-.065-.155-.102-.247-.102s-.182.037-.245.102l-.003.002-.464-1.548.458-.435c.839-.797 1.446-1.372 1.877-1.948z"/></svg>
